;Initialize scraper
T1;Select scraper
M82;Exact positioning
G92 E00;Set as home
G1 E-110 F400;Go up 110 units
T0;Select head
M82;Exact positioning
G28;Home all axes
;Generated by Cura LulzBot Edition GCodeWriter Version: 3.6.20
;FLAVOR:Marlin
;TIME:926
;Filament used: 0.470224m
;Layer height: 0.25
;Generated with Cura_SteamEngine 3.6.20
M82 ;absolute extrusion mode
;This G-Code has been generated specifically for the LulzBot TAZ 6 with standard extruder
M73 P0 ; clear GLCD progress bar
M75 ; start GLCD timer
G26 ; clear potential 'probe fail' condition
M107 ; disable fans
M420 S0 ; disable previous leveling matrix
G90 ; absolute positioning
M82 ; set extruder to absolute mode
G92 E0 ; set extruder position to 0
M140 S60.0 ; start bed heating up
M109 R140 ; soften filament before homing Z
G28 ; Home all axis
G1 E-30 F100 ; retract filament
M109 R140 ; wait for extruder to reach wiping temp
G1 X-15 Y100 F3000 ; move above wiper pad
G1 Z1 ; push nozzle into wiper
G1 X-17 Y95 F1000 ; slow wipe
G1 X-17 Y90 F1000 ; slow wipe
G1 X-17 Y85 F1000 ; slow wipe
G1 X-15 Y90 F1000 ; slow wipe
G1 X-17 Y80 F1000 ; slow wipe
G1 X-15 Y95 F1000 ; slow wipe
G1 X-17 Y75 F2000 ; fast wipe
G1 X-15 Y65 F2000 ; fast wipe
G1 X-17 Y70 F2000 ; fast wipe
G1 X-15 Y60 F2000 ; fast wipe
G1 X-17 Y55 F2000 ; fast wipe
G1 X-15 Y50 F2000 ; fast wipe
G1 X-17 Y40 F2000 ; fast wipe
G1 X-15 Y45 F2000 ; fast wipe
G1 X-17 Y35 F2000 ; fast wipe
G1 X-15 Y40 F2000 ; fast wipe
G1 X-17 Y70 F2000 ; fast wipe
G1 X-15 Y30 Z2 F2000 ; fast wipe
G1 X-17 Y35 F2000 ; fast wipe
G1 X-15 Y25 F2000 ; fast wipe
G1 X-17 Y30 F2000 ; fast wipe
G1 X-15 Y25 Z1.5 F1000 ; slow wipe
G1 X-17 Y23 F1000 ; slow wipe
G1 Z10 ; raise extruder
M109 R140 ; wait for extruder to reach probe temp
G1 X-9 Y-9 ; move above first probe point
M204 S100 ; set probing acceleration
G29 ; start auto-leveling sequence
M420 S1 ; activate bed level matrix
M425 Z			     ; use measured Z backlash for compensation
M425 Z F0		     ; turn off measured Z backlash compensation. (if activated in the quality settings, this command will automatically be ignored)
M204 S500 ; restore standard acceleration
G1 X0 Y0 Z15 F5000 ; move up off last probe point
G4 S1 ; pause
M400 ; wait for moves to finish
M117 Heating... ; progress indicator message on LCD
M109 R210 ; wait for extruder to reach printing temp
M190 R60.0 ; wait for bed to reach printing temp
G1 Z2 E0 F75 ; prime tiny bit of filament into the nozzle
M117 TAZ 6 Printing... ; progress indicator message on LCD

M221 S100 T0
G92 E0
G1 F600 E-1
;LAYER_COUNT:32
;LAYER:0
M107
G0 F2625 X123.37 Y124.983 Z0.425
;TYPE:SKIRT
G1 F600 E0
G1 F900 X126.71 Y121.649 E0.1572
G1 X127.124 Y121.292 E0.17541
G1 X127.586 Y120.998 E0.19365
G1 X128.086 Y120.776 E0.21187
G1 X128.614 Y120.628 E0.23014
G1 X129.156 Y120.558 E0.24834
G1 X129.703 Y120.569 E0.26657
G1 X132.538 Y120.83 E0.3614
G1 X138.021 Y121.098 E0.54426
G1 X143.495 Y121.056 E0.72661
G1 X146.159 Y120.922 E0.81546
G1 X150.343 Y120.572 E0.95532
G1 X150.89 Y120.566 E0.97354
G1 X151.432 Y120.64 E0.99176
G1 X151.958 Y120.793 E1.01001
G1 X152.456 Y121.02 E1.02824
G1 X152.916 Y121.317 E1.04648
G1 X153.307 Y121.658 E1.06376
G1 X156.634 Y124.987 E1.22053
G1 X156.992 Y125.402 E1.23879
G1 X157.286 Y125.864 E1.25703
G1 X157.49 Y126.312 E1.27343
G1 X158.425 Y128.786 E1.36153
G1 X160.859 Y134.447 E1.56679
G1 X161.038 Y134.964 E1.58501
G1 X161.14 Y135.502 E1.60325
G1 X161.164 Y135.928 E1.61747
G1 X161.164 Y140.644 E1.77456
G1 X161.124 Y141.19 E1.79279
G1 X161.005 Y141.724 E1.81102
G1 X160.832 Y142.186 E1.82745
G1 X159.738 Y144.609 E1.91601
G1 X157.467 Y150.314 E2.12055
G1 X157.228 Y150.807 E2.1388
G1 X156.92 Y151.259 E2.15702
G1 X156.621 Y151.592 E2.17192
G1 X153.224 Y154.955 E2.33115
G1 X152.808 Y155.311 E2.34939
G1 X152.345 Y155.602 E2.3676
G1 X151.962 Y155.778 E2.38164
G1 X146.912 Y157.77 E2.56248
G1 X143.886 Y159.122 E2.67288
G1 X143.372 Y159.308 E2.69108
G1 X142.835 Y159.417 E2.70934
G1 X142.357 Y159.448 E2.72529
G1 X137.646 Y159.448 E2.88222
G1 X137.1 Y159.408 E2.90045
G1 X136.566 Y159.289 E2.91868
G1 X136.107 Y159.117 E2.93501
G1 X133.685 Y158.027 E3.02348
G1 X127.891 Y155.689 E3.2316
G1 X127.4 Y155.447 E3.24983
G1 X126.949 Y155.137 E3.26806
G1 X126.64 Y154.861 E3.28186
G1 X123.362 Y151.578 E3.4364
G1 X123.005 Y151.163 E3.45464
G1 X122.712 Y150.701 E3.47286
G1 X122.527 Y150.303 E3.48748
G1 X120.519 Y145.206 E3.66996
G1 X119.161 Y142.164 E3.78093
G1 X118.975 Y141.65 E3.79914
G1 X118.866 Y141.113 E3.81739
G1 X118.835 Y140.634 E3.83338
G1 X118.837 Y135.917 E3.9905
G1 X118.877 Y135.372 E4.00871
G1 X118.996 Y134.837 E4.02696
G1 X119.169 Y134.376 E4.04337
G1 X120.262 Y131.956 E4.13182
G1 X122.535 Y126.249 E4.33644
G1 X122.774 Y125.757 E4.35466
G1 X123.083 Y125.305 E4.3729
G1 X123.37 Y124.983 E4.38727
G0 F2625 X123.723 Y125.337
G1 F900 X127.063 Y122.003 E4.54447
G1 X127.451 Y121.672 E4.56146
G1 X127.885 Y121.406 E4.57841
G1 X128.356 Y121.212 E4.59538
G1 X128.852 Y121.093 E4.61237
G1 X129.36 Y121.053 E4.62935
G1 X129.657 Y121.067 E4.63925
G1 X132.513 Y121.33 E4.73479
G1 X138.001 Y121.598 E4.91781
G1 X143.5 Y121.556 E5.10099
G1 X146.194 Y121.42 E5.19084
G1 X150.384 Y121.07 E5.3309
G1 X150.894 Y121.068 E5.34789
G1 X151.398 Y121.145 E5.36487
G1 X151.883 Y121.3 E5.38183
G1 X152.338 Y121.529 E5.3988
G1 X152.752 Y121.826 E5.41577
G1 X152.954 Y122.012 E5.42492
G1 X156.281 Y125.341 E5.58169
G1 X156.612 Y125.728 E5.59866
G1 X156.878 Y126.163 E5.61564
G1 X157.022 Y126.488 E5.62748
G1 X157.961 Y128.971 E5.71591
G1 X160.4 Y134.645 E5.92163
G1 X160.564 Y135.127 E5.93859
G1 X160.65 Y135.629 E5.95556
G1 X160.664 Y135.928 E5.96553
G1 X160.664 Y140.644 E6.12262
G1 X160.624 Y141.152 E6.1396
G1 X160.505 Y141.647 E6.15655
G1 X160.376 Y141.981 E6.16848
G1 X159.274 Y144.424 E6.25775
G1 X157.002 Y150.129 E6.4623
G1 X156.777 Y150.586 E6.47927
G1 X156.484 Y151.003 E6.49625
G1 X156.27 Y151.237 E6.50681
G1 X152.873 Y154.6 E6.66604
G1 X152.483 Y154.929 E6.68303
G1 X152.048 Y155.193 E6.69998
G1 X151.779 Y155.313 E6.7098
G1 X146.711 Y157.312 E6.89127
G1 X143.683 Y158.665 E7.00175
G1 X143.202 Y158.836 E7.01875
G1 X142.702 Y158.93 E7.0357
G1 X142.357 Y158.948 E7.0472
G1 X137.646 Y158.948 E7.20413
G1 X137.138 Y158.908 E7.2211
G1 X136.643 Y158.789 E7.23806
G1 X136.312 Y158.662 E7.24987
G1 X133.853 Y157.555 E7.3397
G1 X128.078 Y155.225 E7.54713
G1 X127.622 Y154.998 E7.5641
G1 X127.207 Y154.702 E7.58108
G1 X126.994 Y154.507 E7.5907
G1 X123.716 Y151.224 E7.74524
G1 X123.386 Y150.837 E7.76218
G1 X123.12 Y150.402 E7.77916
G1 X122.992 Y150.119 E7.78951
G1 X120.988 Y145.032 E7.97163
G1 X119.617 Y141.961 E8.08366
G1 X119.447 Y141.481 E8.10062
G1 X119.353 Y140.98 E8.1176
G1 X119.335 Y140.635 E8.12911
G1 X119.337 Y135.918 E8.28624
G1 X119.377 Y135.41 E8.30321
G1 X119.496 Y134.914 E8.3202
G1 X119.625 Y134.581 E8.3321
G1 X120.727 Y132.142 E8.42125
G1 X123 Y126.434 E8.62591
G1 X123.225 Y125.977 E8.64287
G1 X123.518 Y125.561 E8.65982
G1 X123.723 Y125.337 E8.66994
G1 F600 E7.66994
;MESH:
G0 F2625 X127.562 Y133.416
G0 X128.888 Y133.938
G0 X128.41 Y135.658
G0 X128.342 Y135.585
;TYPE:WALL-INNER
G1 F600 E8.66994
G1 F900 X128.588 Y134.737 E8.69935
G1 X128.723 Y134.328 E8.7137
G1 X128.872 Y133.926 E8.72798
G1 X129.048 Y133.503 E8.74324
G1 X129.218 Y133.133 E8.7568
G1 X129.414 Y132.741 E8.7714
G1 X129.847 Y131.948 E8.8015
G1 X126.978 Y127.725 E8.97156
G1 X129.441 Y125.261 E9.08761
G1 X133.664 Y128.131 E9.25769
G1 X134.301 Y127.781 E9.2819
G1 X134.387 Y127.734 E9.28517
G1 X134.674 Y127.588 E9.29589
G1 X134.682 Y127.608
G1 X134.72 Y127.699 E9.29874
G1 X137.262 Y133.721 E9.51647
G1 X137.033 Y133.864 E9.52546
G1 X136.754 Y134.065 E9.53692
G1 X136.49 Y134.283 E9.54832
G1 X136.243 Y134.516 E9.55963
G1 X136.005 Y134.765 E9.57111
G1 X135.786 Y135.033 E9.58263
G1 X135.586 Y135.309 E9.59399
G1 X135.404 Y135.601 E9.60545
G1 X135.241 Y135.903 E9.61688
G1 X135.097 Y136.215 E9.62833
G1 X134.975 Y136.534 E9.6397
G1 X134.871 Y136.862 E9.65117
G1 X134.79 Y137.197 E9.66265
G1 X134.731 Y137.535 E9.67408
G1 X134.695 Y137.876 E9.6855
G1 X134.679 Y138.215 E9.6968
G1 X134.684 Y138.559 E9.70826
G1 X134.713 Y138.903 E9.71976
G1 X134.764 Y139.243 E9.73121
G1 X134.837 Y139.579 E9.74267
G1 X134.932 Y139.908 E9.75407
G1 X135.047 Y140.233 E9.76556
G1 X135.183 Y140.546 E9.77693
G1 X135.337 Y140.85 E9.78828
G1 X135.513 Y141.148 E9.79981
G1 X135.708 Y141.432 E9.81128
G1 X135.919 Y141.7 E9.82264
G1 X136.148 Y141.958 E9.83413
G1 X136.394 Y142.197 E9.84556
G1 X136.654 Y142.422 E9.85701
G1 X136.929 Y142.629 E9.86848
G1 X137.213 Y142.817 E9.87982
G1 X137.512 Y142.987 E9.89128
G1 X137.818 Y143.137 E9.90263
G1 X138.136 Y143.268 E9.91409
G1 X138.464 Y143.379 E9.92562
G1 X138.795 Y143.466 E9.93702
G1 X139.131 Y143.533 E9.94844
G1 X139.472 Y143.579 E9.9599
G1 X139.814 Y143.601 E9.97131
G1 X140.154 Y143.604 E9.98264
G1 X140.499 Y143.583 E9.99415
G1 X140.841 Y143.54 E10.00563
G1 X141.177 Y143.474 E10.01704
G1 X141.508 Y143.388 E10.02843
G1 X141.836 Y143.281 E10.03992
G1 X142.156 Y143.15 E10.05144
G1 X142.462 Y143.001 E10.06278
G1 X142.761 Y142.834 E10.07419
G1 X143.049 Y142.646 E10.08564
G1 X143.323 Y142.441 E10.09704
G1 X143.586 Y142.217 E10.10855
G1 X143.831 Y141.978 E10.11995
G1 X144.062 Y141.723 E10.13141
G1 X144.274 Y141.454 E10.14282
G1 X144.47 Y141.173 E10.15423
G1 X144.647 Y140.876 E10.16575
G1 X144.804 Y140.573 E10.17712
G1 X144.942 Y140.259 E10.18854
G1 X145.059 Y139.935 E10.20002
G1 X145.154 Y139.606 E10.21142
G1 X145.228 Y139.272 E10.22282
G1 X145.282 Y138.933 E10.23425
G1 X145.312 Y138.59 E10.24572
G1 X145.321 Y138.249 E10.25709
G1 X145.31 Y137.907 E10.26848
G1 X145.275 Y137.562 E10.28004
G1 X145.216 Y137.223 E10.2915
G1 X145.137 Y136.89 E10.3029
G1 X145.036 Y136.562 E10.31433
G1 X144.915 Y136.241 E10.32576
G1 X144.773 Y135.929 E10.33718
G1 X144.611 Y135.626 E10.34862
G1 X144.431 Y135.335 E10.36002
G1 X144.232 Y135.055 E10.37146
G1 X144.013 Y134.787 E10.38299
G1 X143.779 Y134.538 E10.39437
G1 X143.532 Y134.302 E10.40575
G1 X143.267 Y134.082 E10.41722
G1 X142.988 Y133.881 E10.42868
G1 X142.738 Y133.722 E10.43855
G1 X145.281 Y127.694 E10.65648
G1 X145.316 Y127.61 E10.65951
G1 X145.326 Y127.587 E10.66035
G1 X145.623 Y127.739 E10.66772
G1 X145.703 Y127.783 E10.67038
G1 X146.336 Y128.131 E10.69445
G1 X150.559 Y125.261 E10.86453
G1 X153.022 Y127.725 E10.98058
G1 X150.153 Y131.948 E11.15064
G1 X150.592 Y132.751 E11.18112
G1 X150.781 Y133.128 E11.19517
G1 X150.963 Y133.527 E11.20978
G1 X151.121 Y133.909 E11.22355
G1 X151.277 Y134.329 E11.23847
G1 X151.405 Y134.719 E11.25215
G1 X151.659 Y135.585 E11.28221
G1 X156.674 Y136.542 E11.45227
G1 X156.674 Y140.025 E11.56829
G1 X151.659 Y140.982 E11.73836
G1 X151.411 Y141.832 E11.76785
G1 X151.275 Y142.247 E11.7824
G1 X151.124 Y142.65 E11.79674
G1 X150.958 Y143.05 E11.81116
G1 X150.777 Y143.446 E11.82567
G1 X150.587 Y143.825 E11.83979
G1 X150.153 Y144.619 E11.86993
G1 X153.021 Y148.842 E12.03997
G1 X150.559 Y151.304 E12.15595
G1 X146.336 Y148.436 E12.326
G1 X145.536 Y148.873 E12.35636
G1 X145.142 Y149.07 E12.37103
G1 X144.768 Y149.24 E12.38472
G1 X144.376 Y149.403 E12.39886
G1 X143.954 Y149.56 E12.41386
G1 X143.553 Y149.692 E12.42792
G1 X142.699 Y149.943 E12.45757
G1 X141.742 Y154.958 E12.62764
G1 X138.258 Y154.958 E12.74369
G1 X137.301 Y149.944 E12.91372
G1 X136.421 Y149.684 E12.94429
G1 X136.022 Y149.552 E12.95829
G1 X135.641 Y149.41 E12.97183
G1 X135.235 Y149.241 E12.98648
G1 X134.816 Y149.05 E13.00182
G1 X134.449 Y148.865 E13.01551
G1 X133.664 Y148.438 E13.04528
G1 X129.441 Y151.306 E13.21532
G1 X126.978 Y148.842 E13.33137
G1 X129.848 Y144.619 E13.50145
G1 X129.424 Y143.847 E13.53079
G1 X129.229 Y143.457 E13.54532
G1 X129.048 Y143.062 E13.55979
G1 X128.879 Y142.655 E13.57447
G1 X128.727 Y142.249 E13.58891
G1 X128.59 Y141.835 E13.60344
G1 X128.341 Y140.982 E13.63303
G1 X123.326 Y140.025 E13.8031
G1 X123.326 Y136.542 E13.91912
G1 X128.342 Y135.585 E14.08922
G0 F2625 X127.947 Y135.151
;TYPE:WALL-OUTER
G1 F900 X128.113 Y134.58 E14.10903
G1 X128.254 Y134.154 E14.12397
G1 X128.41 Y133.734 E14.1389
G1 X128.586 Y133.311 E14.15416
G1 X128.771 Y132.909 E14.1689
G1 X128.975 Y132.501 E14.1841
G1 X129.262 Y131.976 E14.20403
G1 X126.332 Y127.664 E14.37768
G1 X129.38 Y124.615 E14.52129
G1 X133.692 Y127.545 E14.69495
G1 X134.16 Y127.288 E14.71273
G1 X134.489 Y127.12 E14.72504
G1 X134.5 Y127.115 E14.72544
G1 X134.932 Y126.913 E14.74132
G1 X134.938 Y126.929
G1 X134.943 Y126.94 E14.74173
G1 X137.899 Y133.945 E14.99499
G1 X137.576 Y134.114 E15.00713
G1 X137.312 Y134.279 E15.0175
G1 X137.06 Y134.461 E15.02786
G1 X136.821 Y134.658 E15.03818
G1 X136.595 Y134.871 E15.04852
G1 X136.38 Y135.096 E15.05889
G1 X136.183 Y135.338 E15.06928
G1 X136.001 Y135.589 E15.07961
G1 X135.836 Y135.853 E15.08998
G1 X135.688 Y136.127 E15.10035
G1 X135.558 Y136.409 E15.1107
G1 X135.447 Y136.699 E15.12104
G1 X135.353 Y136.996 E15.13142
G1 X135.28 Y137.299 E15.1418
G1 X135.226 Y137.604 E15.15212
G1 X135.194 Y137.914 E15.1625
G1 X135.179 Y138.223 E15.1728
G1 X135.184 Y138.534 E15.18316
G1 X135.21 Y138.845 E15.19356
G1 X135.256 Y139.153 E15.20393
G1 X135.322 Y139.457 E15.21429
G1 X135.408 Y139.755 E15.22463
G1 X135.512 Y140.049 E15.23501
G1 X135.636 Y140.333 E15.24534
G1 X135.776 Y140.61 E15.25567
G1 X135.935 Y140.879 E15.26608
G1 X136.111 Y141.135 E15.27643
G1 X136.303 Y141.379 E15.28677
G1 X136.51 Y141.612 E15.29716
G1 X136.733 Y141.829 E15.30752
G1 X136.968 Y142.033 E15.31789
G1 X137.217 Y142.22 E15.32826
G1 X137.475 Y142.391 E15.33857
G1 X137.746 Y142.545 E15.34895
G1 X138.024 Y142.681 E15.35926
G1 X138.312 Y142.8 E15.36964
G1 X138.608 Y142.9 E15.38005
G1 X138.908 Y142.979 E15.39038
G1 X139.213 Y143.04 E15.40074
G1 X139.521 Y143.081 E15.41109
G1 X139.832 Y143.101 E15.42147
G1 X140.141 Y143.104 E15.43177
G1 X140.452 Y143.085 E15.44215
G1 X140.761 Y143.046 E15.45252
G1 X141.066 Y142.986 E15.46288
G1 X141.367 Y142.908 E15.47323
G1 X141.663 Y142.811 E15.48361
G1 X141.952 Y142.693 E15.49401
G1 X142.231 Y142.558 E15.50433
G1 X142.502 Y142.406 E15.51468
G1 X142.762 Y142.236 E15.52503
G1 X143.011 Y142.05 E15.53538
G1 X143.249 Y141.847 E15.5458
G1 X143.471 Y141.631 E15.55612
G1 X143.68 Y141.4 E15.5665
G1 X143.872 Y141.156 E15.57684
G1 X144.05 Y140.901 E15.5872
G1 X144.21 Y140.633 E15.5976
G1 X144.352 Y140.358 E15.6079
G1 X144.477 Y140.073 E15.61827
G1 X144.583 Y139.78 E15.62865
G1 X144.669 Y139.482 E15.63898
G1 X144.737 Y139.179 E15.64933
G1 X144.785 Y138.872 E15.65968
G1 X144.813 Y138.561 E15.67008
G1 X144.821 Y138.251 E15.68041
G1 X144.811 Y137.941 E15.69074
G1 X144.779 Y137.63 E15.70115
G1 X144.726 Y137.324 E15.7115
G1 X144.654 Y137.021 E15.72187
G1 X144.563 Y136.724 E15.73222
G1 X144.453 Y136.433 E15.74258
G1 X144.324 Y136.15 E15.75294
G1 X144.178 Y135.876 E15.76328
G1 X144.014 Y135.612 E15.77364
G1 X143.834 Y135.358 E15.78401
G1 X143.637 Y135.117 E15.79437
G1 X143.424 Y134.89 E15.80474
G1 X143.199 Y134.676 E15.81509
G1 X142.96 Y134.477 E15.82545
G1 X142.708 Y134.295 E15.8358
G1 X142.446 Y134.129 E15.84613
G1 X142.173 Y133.979 E15.85651
G1 X142.101 Y133.946 E15.85915
G1 X145.059 Y126.936 E16.11259
G1 X145.061 Y126.93 E16.1128
G1 X145.068 Y126.913 E16.11341
G1 X145.509 Y127.119 E16.12545
G1 X145.515 Y127.122 E16.12568
G1 X145.851 Y127.294 E16.13825
G1 X146.308 Y127.545 E16.15562
G1 X150.62 Y124.615 E16.32927
G1 X153.668 Y127.664 E16.47288
G1 X150.738 Y131.976 E16.64654
G1 X151.031 Y132.511 E16.66686
G1 X151.236 Y132.92 E16.6821
G1 X151.418 Y133.319 E16.6967
G1 X151.59 Y133.735 E16.7117
G1 X151.746 Y134.155 E16.72662
G1 X151.885 Y134.578 E16.74145
G1 X152.053 Y135.151 E16.76134
G1 X157.174 Y136.128 E16.935
